X:1
T:His Grace is Sufficient
T:His Grace is Sufficient
T:Daniel Brink Towner
T:R. McNaughton, 1902
T:Public Domain Courtesy of the Cyber Hymnal™
T:Public Domain Courtesy of the Cyber Hymnal™
C:Daniel Brink Towner
Z:Public Domain
Z:Courtesy of the Cyber Hymnal™
%%score ( 1 2 ) ( 3 4 )
L:1/8
Q:1/4=100
M:4/4
K:Eb
V:1 treble 
V:2 treble 
V:3 bass 
V:4 bass 
V:1
 (EF) | [EG]2 [EG][EG] [EG]<[FA] [DF]2 | E6 E[EG] | [GB]2 [GB]>[Ac] [GB]2 [FA][EG] | %4
w: 1.~His *|grace was suf- fi- cient for|me! When in|trem- bling and fear, To His|
w: 2.~His *|grace is suf- fi- cient for|me! And what-|ev- er my lot, I can|
w: 3.~His *|grace is suf- fi- cient for|me! All my|need He’ll pro- vide, And my|
w: 4.~His *|grace is suf- fi- cient for|me! When in|man- sions of bliss, Still my|
 [FA]2 [FA]>[GB] [FA]2 [EG][DF] | [EG]2 [EG]>[FA] [EG]2 [B,F][B,E] | (DE)[DF][EG] [FA]2 [FB]2 | %7
w: side I drew near, And He|cleansed me from sin, Made my|heart * pure with- in, His|
w: hear His “Fear not!” I am|safe in His care, Who can|guard * from each snare, His|
w: steps home- ward guide; And in|death I shall sing, As I|rest * ’neath His wing, His|
w: theme shall be this; And for|aye I shall sing, To the|praise * of my king, Whose|
 [EG]2 E[EF] [EG]<[EG] [DF]2 | E6 ||"^Refrain" B2 | (z2 [EG]2) x6 | (z2 [EG]2) x6 | %12
w: grace was suf- fi- cient for|me.||||
w: grace is suf- fi- cient for|me.|For|||
w: grace is suf- fi- cient for|me.||||
w: grace is suf- fi- cient for|me.||||
 [DA]2 [DA][DA] [FA]<[FA] [DF]2 | ([EG]2 [FA]2 [GB]2) c2 | (z2 F2 E2) c2 | z2 [CF]2 x6 | %16
w: ||||
w: me, for me, His grace is|suf- * * fi-|* * cient||
w: ||||
w: ||||
 [B,E]2 E[EF] [EG]<[EG] [DF]2 | E6 |] %18
w: ||
w: for me; For me, for me,|His|
w: ||
w: ||
V:2
 E2 | x8 | E6 E x | x8 | x8 | x8 | B,2 x6 | x2 E x5 | E6 || x2 | (B6 F2 E2) | (G6 E2 E2) | x8 | %13
 x8 | B6 x2 | (G6 E2 E2) | x2 E x5 | E6 |] %18
V:3
 (G,A,) | [E,B,]2 [E,B,][E,B,] [B,,B,]<[B,,B,] [B,,A,]2 | [E,G,]6 [E,G,][E,B,] | %3
w: ~ *|~ ~ ~ ~ ~ ~|~ ~ ~|
 [E,E]2 [E,E]>[E,E] [E,E]2 [E,B,][E,B,] | [B,,B,]2 [B,,B,]>[B,,B,] [B,,B,]2 [B,,B,][B,,B,] | %5
w: ~ ~ ~ ~ ~ ~|~ ~ ~ ~ ~ ~|
 [E,B,]2 [E,B,]>[E,B,] [E,B,]2 [E,A,][E,G,] | (F,G,)[B,,A,][B,,B,] [B,,C]2 [B,,D]2 | %7
w: ~ ~ ~ ~ ~ ~|~ * ~ ~ ~ ~|
 [E,E]2 [G,E][A,C] B,<B, [B,,A,]2 | [E,G,]6 || z2 | z2 [A,D]2 [G,E]2 C2 x2 | %11
w: ~ ~ ~ ~ ~ ~|~||For me, ~|
 z2 E,2 E,2 [E,B,]2 x2 | [B,,B,]2 [B,,B,][B,,C] [B,,D]<[B,,D] [B,,B,][B,,B,] | %13
w: ~ for me,|~ ~ ~ ~ ~ ~ is|
 [E,B,]<[E,B,] [E,C]2 [E,E]2 z2 | z2 [A,D]2 [G,E]2 C2 | z2 E,2 E,2 [A,,A,]2 x2 | %16
w: suf- fi- ciet for|me; For me,|~ ~ for|
 [B,,G,]2 [B,,G,][B,,A,] [B,,B,]<[B,,B,] [B,,A,]2 | [E,G,]6 |] %18
w: me * * * * *||
V:4
 E,2 | x8 | x8 | x8 | x8 | x8 | B,,2 x6 | x4 B,<B, x2 | x6 || x2 | x10 | B,4 x6 | x8 | x8 | x8 | %15
 B,6 x4 | x8 | x6 |] %18

